X: 1
T: Cup of Tea
R: Reel
C: traditional Irish
Z: Frank Weber
D: 1977: Frankie Gavin & Alec Finn
D: 1989: Flap: One More Tune to Play
D: 1991: Dalriada Brothers: Farewell to Ireland (1991)
D: 1998: Kieran Hanrahan plays the Irish Tenor Banjo
D: 2000: Liz Carroll: Lost in the Loop
D: 2002: Martin Nolan: Bright Silver, Dark Wood
D: Comhaltas: Fionn Seisi�n 2;
N: Chords: | Em   | Em   | Em   | D   | Em   | Em   | G    | D    :||
N:         | D A7 | D Bm | D A7 | G D | D A7 | D G  | D A7 | G  D :||
N:         | D    | D    | D    | G D | D    | D Em | D G  | A7 D :||
L: 1/8
M: 4/4
K: E dor
"Em"BAGF GEEF | "Em"GEBE GE~E2 | "Em"BAGF GEEF |"D"GEAG FDD2 | "Em"BAGF GEEF | "Em"GEBE GE~E2 | "G"BAGF GABc | "D"dBAG FDD2 :|
K: D maj
"D"d2de "A7"fdec | "D"d2 (3efg "Bm"fB~B2 | "D"d2 (3efg "A7"fdec | "G"dBAG "D"FDD2 | "D"d2de "A7"fdec | "D"dfaf "G"g2fg  | "D"af (3gfe "A7"fdec | "G"dBAG "D"FDD2 :|
"D"FAdA FAdA | "D"FAdA GE~E2 | "D"FAdA FABc | "G"dBAG "D"FDD2 | "D"FAdA FAdA | "D"FAde "Em"fe~e2 | "D"fedc "G"dBAF | "A7"GBAG "D"FDD2 :|

